X:1
T: Jackson's Maid
C:
R:Jig
Q:180
K:G
M:6/8
L:1/16
D2|D2G2A2 B4d2|c2A2G2 F2G2A2|B2d2B2 A2F2D2|G2B2G2 A2F2D2|D2G2A2 B2c2d2|c2A2G2 F2G2A2|Bcd2B2 A2F2D2|D2G2G2 G4D2|
D2G2A2 B4d2|c2A2G2 F2G2A2|B2d2B2 A2F2D2|G2B2G2 A2F2D2|D2G2A2 B2c2d2|c2A2G2 F2G2A2|Bcd2B2 A2F2D2|D2G2G2 G4Bc|
d2e2d2 d2c2B2|c2d2c2 c2B2c2|d2e2d2 f2e2f2|d2g2g2 g4a2|b2a2g2 f2e2d2|c2A2G2 F2G2A2|Bcd2B2 A2F2D2|D2G2G2 G4Bc|
d2e2d2 d2c2B2|c2d2c2 c2B2c2|d2e2d2 f2e2f2|d2g2g2 g4a2|b2a2g2 f2e2d2|c2A2G2 F2G2A2|Bcd2B2 A2F2D2|D2G2G2 G4||
